X: 13796
T: Four Bare Legs Together
R: slip jig
M: 9/8
K: Adorian
B2c dcB cBA|GAB B2A GFE|cBc dcd ^dee|EAA A2B cBA:|
G2g gag f2e|dBB B2A GFE|A2a aba ~g3|e2a aba gfe|
d2g gag f2e|dBB B2A GFE|cBc dcd ^dee|EAA A2B cBA|

